X:496
%%etbk:tnset id:220,pos:3,rep:3x,ant:
%%etbk:wsite http://www.trad.katesplacedoolin.com/tunes/tailorsthimble.html
%%etbk:video src:ytube,cde:ZrfQTOwrmtU,desc:
%%etbk:pldat 2015-12-28T17:39,2015-12-24T16:30,2014-12-16T17:15,2014-12-14T15:30,2014-11-24T17:02,2014-10-03T16:16,2014-05-19T18:48,2014-05-02T16:55,2014-04-30T17:00,2014-04-26T16:55,2014-03-20T18:08,2014-03-14T18:46,2014-02-15T15:48,2014-02-12T18:16,2014-02-08T15:43,2014-01-03T16:43,2013-12-29T12:09,2013-12-28T14:16,2013-12-22T17:19,2013-12-17T17:03,2013-12-07T17:34,2013-12-04T18:44,2013-11-26T16:32,2013-11-24T15:53,2013-11-16T15:10,2013-11-06T17:27,2013-11-03T15:29,2013-10-26T17:29,2013-10-20T15:36,2013-10-09T17:18,2013-10-02T18:29,2013-10-01T18:23,2013-09-29T15:01,2013-09-27T16:38,2013-09-26T16:23
T:Tailor's Thimble, The
H: Created 2013-09-27 /  Last Modified 2013-09-27
R:Reel
M:4/4
K:Ador
|:"am"!3!c!1!AAG A2!4!dB | !3!c!1!AAA !4!d!2!B!1!GB | !3!cAAG !1!ABc!4!d |1 "G"!2!e2ge !1!d!2!B!1!G!2!B:|2 "G"!2!e2ge !1!dega||
|:"G"!5!b2gb !4!a2ga | !5!bage !1!dega | !5!b2gb !4!abgd |1 "D"!2!efge !1!dega:|2 "D"!2!efge !1!d!2!B!1!G!2!B||


